!! 00005] TT[00
!! Eigene Aufnahme
!!!OTL: Kan yang ge
!!!ARE: Asia, China, Shanxi, Qitai
!! Ethnic Group: Han
!! I, 327 (2)
!!!SCT: C0140
!!!YEM: Copyright 1995, estate of Helmut Schaffrath.
**kern
*ICvox
*Ivox
!! Mixed meters:  4/4; 2/4
*M4/4
*k[b-e-a-]
*E-:
{8r
8cc
8g
16g
16g
8cc
16cc
16gg
8ee-
16dd
16cc
=1
*M2/4
8g}
{8gg
16ee-
16dd
16cc
16dd
=2
16bn
16cc
[8g
8g]}
{8gg
=3
16ee-
16dd
16cc
16dd
16cc
16dd
16cc
16g}
=4
{8bn
16cc
16dd
8cc
16bn
16g
=5
8f
16e-
16d
4c}
=6
{16cc
16g
16cc
16gg
16ee-
16dd
16cc
16g
=7
8cc
16cc
16gg
16ee-
16dd
8cc}
=8
{8gg
16ee-
16dd
16cc
16dd
16cc
16b-
=9
16g
16b-
16g
16f
16e-
16c
8e-
=10
8f}
{8g
8cc
16cc
16gg
=11
16ee-
16dd
16cc
16f
16g
16a-
8g}
=12
{16cc
16cc
16cc
16gg
16ee-
16dd
16ff
16cc
=13
*M4/4
16g
16b-
16f
16d
4c
8r}
{8gg
8ee-
16ee-
16ee-
=14
*M2/4
16cc
16dd
16cc
16f
16g
16a-
8g}
=15
{16cc
16cc
16cc
16gg
16ee-
16dd
16ff
16cc
=16
16g
16b-
16f
16d
[4c
=17
2c]}
==
!!!AGN: Tanzlied, Yan ge
!! Anfang wird AUF TB wiederholt. Doublette oder Variante auf Band 19
!!    Saengerin: Huang Bai = leicht variiert
!!!ONB: ESAC (Essen Associative Code) Database: CHINA_003
!!!AMT: irregular
!!!AIN: vox
!!!EED: Helmut Schaffrath
!!!EEV: 1.0
*-
!!!ONB: Tied note syntax fixed by Craig Sapp, 2004/05/03/
